!!!COM: Corelli, Arcangelo
!!!OTL: 
!!!ONM: Opus 3, No. 8
!!!OMV: 4
!!!CDT: 1653/2/17/-1713/1/8/
!!!OCY: Italia
**kern	**kern	**kern	**kern
*clefC	*clefC	*clefG	*clefG
*k[]	*k[]	*k[]	*k[]
*C:	*C:	*C:	*C:
*M4/4	*M4/4	*M4/4	*M4/4
=1	=1	=1	=1
4C	4C	4ee	8r
.	.	.	8ee
8r	8r	8r	8gg
8c	8c	8cc	8ee
8B	8B	16gg	8r
.	.	16ff	.
8BB	8BB	16gg	8dd
.	.	16aa	.
8r	8r	16gg	8gg
.	.	16aa	.
8B	8B	16gg	8dd
.	.	16aa	.
=2	=2	=2	=2
8A	8A	16ff	8r
.	.	16ee	.
8AA	8AA	16ff	8cc
.	.	16gg	.
8r	8r	16ff	8ff
.	.	16aa	.
8A	8A	16gg	8cc
.	.	16ff	.
8G	8G	16ee	8r
.	.	16dd	.
8GG	8GG	16ee	8b
.	.	16ff	.
8r	8r	16ee	8ee
.	.	16gg	.
8G	8G	16ff	8b
.	.	16ee	.
=3	=3	=3	=3
8F	8F	16dd	8r
.	.	16cc	.
8FF	8FF	16dd	8a
.	.	16ee	.
8r	8r	16dd	8dd
.	.	16ff	.
8F	8F	16ee	8a
.	.	16dd	.
8E	8E	16cc	8r
.	.	16b	.
8EE	8EE	16cc	8g
.	.	16dd	.
8r	8r	16cc	8cc
.	.	16ee	.
8E	8E	16dd	8gg
.	.	16ee	.
=4	=4	=4	=4
8F	8F	8a	8aa
8G	8G	8b	8gg
8A	8A	4cc	8ff
8E	8E	.	8ee
8F	8F	4.cc	2dd
8D	8D	.	.
8G	8G	.	.
8GG	8GG	8b	.
=5	=5	=5	=5
4C	8C	8cc	4cc
.	8c	8ee	.
8r	8e	8gg	8r
8C	8C	8ee	8ee
4BB	8BB	8r	16gg
.	.	.	16ff
.	8B	8dd	16gg
.	.	.	16aa
8r	8d	8b	16gg
.	.	.	16aa
8BB	8BB	8dd	16gg
.	.	.	16aa
=6	=6	=6	=6
4AA	8AA	8r	16ff
.	.	.	16ee
.	8A	8cc	16ff
.	.	.	16gg
8r	8c	8a	16ff
.	.	.	16aa
8AA	8AA	8cc	16gg
.	.	.	16ff
4GG	8GG	8r	16ee
.	.	.	16dd
.	8G	8b	16ee
.	.	.	16ff
8r	8B	8g	16ee
.	.	.	16gg
8GG	8GG	8b	16ff
.	.	.	16ee
=7	=7	=7	=7
4FF	8FF	8r	16dd
.	.	.	16ee
.	8F	8a	16ff
.	.	.	16ee
8r	8A	8f	16dd
.	.	.	16cc
8FF	8FF	8dd	16b
.	.	.	16a
8EE	8EE	8r	16g#
.	.	.	16ee
8E	8E	8ee	16ff#
.	.	.	16gg#
8F	8F	8cc	16aa
.	.	.	16cc
8C	8C	8a	16dd
.	.	.	16ee
=8	=8	=8	=8
8D	8D	4.a	16ff
.	.	.	16ee
8BB	8BB	.	16dd
.	.	.	16cc
8E	8E	.	4b
8EE	8EE	8g#	.
4AA	4AA	4a	8a
.	.	.	8ff
8r	8r	8r	8aa
8A	8A	8cc	8ff
=9	=9	=9	=9
8G	8G	16b	8r
.	.	16a	.
8GG	8GG	16b	8ee
.	.	16cc	.
8r	8r	16b	8gg
.	.	16dd	.
8G	8G	16cc	8ee
.	.	16b	.
8F	8F	16a	8r
.	.	16g	.
8FF	8FF	16a	8dd
.	.	16b	.
8r	8r	16a	8ff
.	.	16cc	.
8F	8F	16b	8dd
.	.	16a	.
=10	=10	=10	=10
8E	8E	16g	8r
.	.	16f	.
8EE	8EE	16g	8cc
.	.	16a	.
8r	8r	16g	8ee
.	.	16gg	.
8E	8E	16ff	8cc
.	.	16gg	.
8F	8F	16aa	8a
.	.	16bb	.
8G	8G	16gg	8b
.	.	16aa	.
8A	8A	16ff	8cc
.	.	16gg	.
8E	8E	16ee	8cc
.	.	16ff	.
=11	=11	=11	=11
8F	8F	16dd	4.cc
.	.	16gg	.
8D	8D	16ff	.
.	.	16ee	.
8G	8G	4dd	.
8GG	8GG	.	8b
4C	8C	8cc	4cc
.	8c	8ee	.
8r	8e	8gg	8r
8C	8C	8ee	8ee
=12	=12	=12	=12
4BB	8BB	8r	16gg
.	.	.	16ff
.	8B	8dd	16gg
.	.	.	16aa
8r	8d	8b	16gg
.	.	.	16aa
8BB	8BB	8dd	16gg
.	.	.	16aa
4AA	8AA	8r	16ff
.	.	.	16ee
.	8A	8cc	16ff
.	.	.	16gg
8r	8c	8a	16ff
.	.	.	16aa
8AA	8AA	8cc	16gg
.	.	.	16ff
=13	=13	=13	=13
4GG	8GG	8r	16ee
.	.	.	16dd
.	8G	8b	16ee
.	.	.	16ff
8r	8B	8g	16ee
.	.	.	16ff
8G	8G	8b	16gg
.	.	.	16ee
8F	8F	8a	16aa
.	.	.	16bb
8G	8G	8b	16gg
.	.	.	16aa
8A	8A	8cc	16ff
.	.	.	16gg
8E	8E	8cc	16ee
.	.	.	16ff
=14	=14	=14	=14
8F	8F	4.cc	16dd
.	.	.	16gg
8D	8D	.	16ff
.	.	.	16ee
8G	8G	.	4dd
8GG	8GG	8b	.
4C	4C	16cc	16ee
.	.	16b	16dd
.	.	16cc	16ee
.	.	16dd	16ff
4r	4r	16cc	16ee
.	.	16dd	16ff
.	.	16cc	16ee
.	.	16dd	16ff
=15	=15	=15	=15
8c	8c	4ee	4gg
8C	8C	.	.
8G	8G	4r	4r
8GG	8GG	.	.
4C	4C	16ee	16gg
.	.	16dd	16ff
.	.	16ee	16gg
.	.	16ff	16aa
4r	4r	16ee	16gg
.	.	16ff	16aa
.	.	16ee	16gg
.	.	16dd	16ff
=16	=16	=16	=16
8A	8A	4cc	4ee
8AA	8AA	.	.
8E	8E	4r	4r
8EE	8EE	.	.
4AA	4AA	16cc	16ee
.	.	16b	16dd
.	.	16cc	16ee
.	.	16dd	16ff
4r	4r	16cc	16ee
.	.	16dd	16ff
.	.	16cc	16ee
.	.	16b	16dd
=17	=17	=17	=17
8f	8f	4a	4cc
8F	8F	.	.
8c	8c	4r	4r
8C	8C	.	.
4F	4F	16aa	16ccc
.	.	16gg	16bb-
.	.	16aa	16ccc
.	.	16bb-	16ddd
4r	4r	16aa	16ccc
.	.	16bb-	16ddd
.	.	16aa	16ccc
.	.	16gg	16bb-
=18	=18	=18	=18
8d	8d	4ff	4aa
8D	8D	.	.
8A	8A	4r	4r
8AA	8AA	.	.
4D	4D	16ff	16aa
.	.	16gg	16bb-
.	.	16ff	16aa
.	.	16ee	16gg
4r	4r	16dd	16ff
.	.	16ee	16gg
.	.	16dd	16ff
.	.	16cc	16ee
=19	=19	=19	=19
8G	8G	8b	4.dd
8GG	8GG	8g	.
8BB	8BB	2gg	.
8GG	8GG	.	8b
8AA	8AA	.	8cc
8A	8A	.	8ee
8c	8c	8ff#	[4aa
8A	8A	8ee	.
=20	=20	=20	=20
4.B	4.B	8dd#	8aa]
.	.	8b	8bb
.	.	2bb	8gg
8B	8B	.	8ff#
8c	8c	.	8ee
8B	8B	.	8gg
8c	8c	[4aa	8ff#
8A	8A	.	8ee
=21	=21	=21	=21
8B	8B	4aa]	8dd#
8B	8B	.	8b
8c	8c	4gg	2ee
8G	8G	.	.
8A	8A	2ff#	.
8F#	8F#	.	.
8B	8B	.	4dd#
8BB	8BB	.	.
=22	=22	=22	=22
8E	8E	2ee	[1ee
8e	8e	.	.
8d#	8d#	.	.
8B	8B	.	.
8e	8e	2r	.
8e	8e	.	.
8d	8d	.	.
8B	8B	.	.
=23	=23	=23	=23
8c	8c	1ee	1ee]
8c	8c	.	.
8B	8B	.	.
8G	8G	.	.
8A	8A	.	.
8G	8G	.	.
8F#	8F#	.	.
8E	8E	.	.
=24	=24	=24	=24
4B	4B	4dd#	4ff#
4E	4E	4ee	4gg
2BB	2BB	4.ee	2ff#
.	.	8dd#	.
=25	=25	=25	=25
2EE	2EE	2ee	2ee
4C	4C	4gg	8r
.	.	.	8ee
8r	8r	8r	8gg
8c	8c	8cc	8ee
=26	=26	=26	=26
8B	8B	16gg	8r
.	.	16ff	.
8BB	8BB	16gg	8dd
.	.	16aa	.
8r	8r	16gg	8gg
.	.	16aa	.
8B	8B	16gg	8dd
.	.	16aa	.
8A	8A	16ff	8r
.	.	16ee	.
8AA	8AA	16ff	8cc
.	.	16gg	.
8r	8r	16ff	8ff
.	.	16aa	.
8A	8A	16gg	8cc
.	.	16ff	.
=27	=27	=27	=27
8G	8G	16ee	8r
.	.	16dd	.
8GG	8GG	16ee	8b
.	.	16ff	.
8r	8r	16ee	8ee
.	.	16gg	.
8G	8G	16ff	8b
.	.	16ee	.
8F	8F	16dd	8r
.	.	16cc	.
8FF	8FF	16dd	8a
.	.	16ee	.
8r	8r	16dd	8dd
.	.	16ff	.
8F	8F	16ee	8a
.	.	16dd	.
=28	=28	=28	=28
8E	8E	16cc	8r
.	.	16b	.
8EE	8EE	16cc	8g
.	.	16dd	.
8r	8r	16cc	8cc
.	.	16ee	.
8E	8E	16dd	8gg
.	.	16ee	.
8F	8F	8a	8aa
8G	8G	8b	8gg
8A	8A	4cc	8ff
8E	8E	.	8ee
=29	=29	=29	=29
8F	8F	4.cc	2dd
8D	8D	.	.
8G	8G	.	.
8GG	8GG	8b	.
4C	8C	8cc	4cc
.	8c	8ee	.
8r	8e	8gg	8r
8C	8C	8ee	8ee
=30	=30	=30	=30
4BB	8BB	8r	16gg
.	.	.	16ff
.	8B	8dd	16gg
.	.	.	16aa
8r	8d	8b	16gg
.	.	.	16aa
8BB	8BB	8dd	16gg
.	.	.	16aa
4AA	8AA	8r	16ff
.	.	.	16ee
.	8A	8cc	16ff
.	.	.	16gg
8r	8c	8a	16ff
.	.	.	16aa
8AA	8AA	8cc	16gg
.	.	.	16ff
=31	=31	=31	=31
4GG	8GG	8r	16ee
.	.	.	16dd
.	8G	8b	16ee
.	.	.	16ff
8r	8B	8g	16ee
.	.	.	16gg
8GG	8GG	8b	16ff
.	.	.	16ee
4FF	8FF	8r	16dd
.	.	.	16ee
.	8F	8a	16ff
.	.	.	16ee
8r	8A	8f	16dd
.	.	.	16cc
8FF	8FF	8dd	16b
.	.	.	16a
=32	=32	=32	=32
8EE	8EE	8r	16g#
.	.	.	16ee
8E	8E	8ee	16ff#
.	.	.	16gg#
8F	8F	8cc	16aa
.	.	.	16cc
8C	8C	8a	16dd
.	.	.	16ee
8D	8D	4.a	16ff
.	.	.	16ee
8BB	8BB	.	16dd
.	.	.	16cc
8E	8E	.	4b
8EE	8EE	8g#	.
=33	=33	=33	=33
4AA	4AA	4a	8a
.	.	.	8ff
8r	8r	8r	8aa
8A	8A	8cc	8ff
8G	8G	16b	8r
.	.	16a	.
8GG	8GG	16b	8ee
.	.	16cc	.
8r	8r	16b	8gg
.	.	16dd	.
8G	8G	16cc	8ee
.	.	16b	.
=34	=34	=34	=34
8F	8F	16a	8r
.	.	16g	.
8FF	8FF	16a	8dd
.	.	16b	.
8r	8r	16a	8ff
.	.	16cc	.
8F	8F	16b	8dd
.	.	16a	.
8E	8E	16g	8r
.	.	16f	.
8EE	8EE	16g	8cc
.	.	16a	.
8r	8r	16g	8ee
.	.	16gg	.
8E	8E	16ff	8cc
.	.	16gg	.
=35	=35	=35	=35
8F	8F	16aa	8a
.	.	16bb	.
8G	8G	16gg	8b
.	.	16aa	.
8A	8A	16ff	8cc
.	.	16gg	.
8E	8E	16ee	8cc
.	.	16ff	.
8F	8F	16dd	4.cc
.	.	16gg	.
8D	8D	16ff	.
.	.	16ee	.
8G	8G	4dd	.
8GG	8GG	.	8b
=36	=36	=36	=36
4C	8C	8cc	4cc
.	8c	8ee	.
8r	8e	8gg	8r
8C	8C	8ee	8ee
4BB	8BB	8r	16gg
.	.	.	16ff
.	8B	8dd	16gg
.	.	.	16aa
8r	8d	8b	16gg
.	.	.	16aa
8BB	8BB	8dd	16gg
.	.	.	16aa
=37	=37	=37	=37
4AA	8AA	8r	16ff
.	.	.	16ee
.	8A	8cc	16ff
.	.	.	16gg
8r	8c	8a	16ff
.	.	.	16aa
8AA	8AA	8cc	16gg
.	.	.	16ff
4GG	8GG	8r	16ee
.	.	.	16dd
.	8G	8b	16ee
.	.	.	16ff
8r	8B	8g	16ee
.	.	.	16ff
8G	8G	8b	16gg
.	.	.	16ee
=38	=38	=38	=38
8F	8F	8a	16aa
.	.	.	16bb
8G	8G	8b	16gg
.	.	.	16aa
8A	8A	8cc	16ff
.	.	.	16gg
8E	8E	8cc	16ee
.	.	.	16ff
8F	8F	4.cc	16dd
.	.	.	16gg
8D	8D	.	16ff
.	.	.	16ee
8G	8G	.	4dd
8GG	8GG	8b	.
=39	=39	=39	=39
8C	8C	4cc	4cc
8D	8D	.	.
8E	8E	8r	8r
8C	8C	8ee	8gg
8F	8F	8a	8aa
8G	8G	8b	8gg
8A	8A	4cc	8ff
8E	8E	.	8ee
=40	=40	=40	=40
8F	8F	4cc	2dd
8D	8D	.	.
8G	8G	4b	.
8GG	8GG	.	.
2C	2C	2cc	2cc
==	==	==	==
*-	*-	*-	*-
!!!RWG: This file only contains pitch and duration data.
!!!RWG: Transposing instruments are not transposed.
!!!RWG: Durations of rests and tied notes may be interpreted.
!!!RWG: Key is interpreted using the Humdrum key tool.
!!!SCA: 
!!!YOR: Chrysander Edition
!!!AGN: chamber
!!!AFT: stage1
!!!ENC: F. Bennion
!!!END: 1997/04/15
!!!AST: baroque
!!!YEC: Copyright 1994, Center for Computer Assisted Research in the Humanities
!!!YEM: Rights to all derivative electronic formats reserved.
!!!YEM: Refer to licensing agreement for further details.
!!!YEN: United States of America
!!!EED: W.B. Hewlett
!!!KEY: 3209355939
!!!EMD: Converted from MuseData to Humdrum Aug 9, 1999, by Bret Aarden using muse2kern.
!!!VTS: 2307074235
